X:1350
T:Polska efter Bränd Jon
S:Efter [[!Björn Ståbi]] & [[!Ole Hjorth]]
S:Efter Bränd Jon
D:Sonet CD (014-241-2) #1 Folk Tunes from Dalarna
Z:[[http://www.bluerose.karenlmyers.org/IncipitsPolskaOrsa5.html|Karen Myers (#2167)]]
Z:Upptecknad 10/2003
M:3/4
L:1/8
R:Polska
O:Orsa, Dalarna
K:Am
(3A2 c2 B2 G>(A | B2) (c/B/)c/d/ e>(g | T^f>)(e d>)(^c d>)(f | a/b/)a/g/ e>(d c/B/)A/G/ |
(3A2 c2 B2 G>A | B2 (c/B/)c/d/ e>(g | T^f>)(e d>)(^c d>)(e | ^f)d/f/e4- | e2 e4 :|
|: (3ue2 c2 e2 Tg>(e | (3cBc) de (fg1/4f1/4e1/4f1/4 | e2) d>(c d>)(f | a>)(f a/b/)a/g/e2- | (3e2 c2 e2 Tg>(e |
(3cBc) de (fg1/4f1/4e1/4f1/4 | e2) d>(c d>)(f | a>)(f a/b/)a/g/e2- | e2 c>(B (3G)Bd | c2 A4 :|
(:musicend:)

(:music:)
